X: 3113
Q:"Strathspey."
M: C
L: 1/8
K: A
|:\
a<a e>d c<A A>c | d<d B>A G>E E>D |\
|:\
(3cde A>=G F<D D>c | (3def B>A G<E E>G |\
(3ABc (3Bcd (3cde (3def | e<a e>d c<A Ae :|


